X:1
T:Every Star Shall Sing a Carol
M:4/4
L:1/4
K:G
 E B A3/2 G/2| F E D/2 G3/2| B,3/2 A,/2 B,E/2-F/2| GF/2-D/2 E2| D B A3/2 G/2|\
 F E D/2 G3/2| B,3/2 A,/2 B,E/2-F/2| G F E2| E B B2| E B B2| E B BA/2-F/2|\
 GF/2-D/2 E2|
